!!!OTL: DU BACH MIT SILBERNEN WELLEN
!!!ARE: Europa, Mitteleuropa, Deutschland
!!!SCT: B0271
!!!YEM: Copyright 1995, estate of Helmut Schaffrath.
**kern
*ICvox
*Ivox
*M6/8
*k[]
*a:
{8e
=1
8a
8a
8b
8.ccn
16b
8ccn
=2
4a
8ccn
4b}
{8ccn
=3
8.a
16b
8ccn
8dd
8ccn
8b
=4
4.a
4g#}
{8b
=5
8ccn
8ccn
8ccn
8dd
8dd
8dd
=6
4.ee
4dd}
{8dd
=7
8.ccn
16b
8a
4b
8e
=8
4.a
4r}
==
!!!AGN: Stimmungs - Lied, Trauer, Klage
!!!ONB: ESAC (Essen Associative Code) Database: BOEHME
!!!AMT: compound duple
!!!AIN: vox
!!!EED: Helmut Schaffrath
!!!EEV: 1.0
*-
